X: 5
T: Petronella
R: reel
M: 4/4
L: 1/8
K: Dmaj
FA/F/ EA/F/ | DD DF/A/ | dc/d/ ed | c/d/B/c/ Ad/A/ |FA/F/ EA/F/ | DD DF/A/ | dc/d/ ec | d2- d :|Ff/d/ Aa/f/ | gg/f/ e/d/c/B/ | Ae/c/ Ag/e/ | ff/d/ A/d/A/F/ |Df/d/ Aa/f/ | gg/f/ e/d/c/B/ | Ae/c/ A/g/e/c/ | d2- d :|


Tune 1083	Setting 26685

